svg/face-smile.svg

<?xml version="1.0" encoding="UTF-8" standalone="no"?>
<!-- Created with Inkscape (http://www.inkscape.org/) -->

<svg
   xmlns:dc="http://purl.org/dc/elements/1.1/"
   xmlns:cc="http://creativecommons.org/ns#"
   xmlns:rdf="http://www.w3.org/1999/02/22-rdf-syntax-ns#"
   xmlns:svg="http://www.w3.org/2000/svg"
   xmlns="http://www.w3.org/2000/svg"
   xmlns:xlink="http://www.w3.org/1999/xlink"
   xmlns:sodipodi="http://sodipodi.sourceforge.net/DTD/sodipodi-0.dtd"
   xmlns:inkscape="http://www.inkscape.org/namespaces/inkscape"
   sodipodi:docname="face-smile.svg"
   inkscape:version="0.92.2 (5c3e80d, 2017-08-06)"
   sodipodi:version="0.32"
   id="svg4376"
   height="22"
   width="22"
   inkscape:output_extension="org.inkscape.output.svg.inkscape"
   version="1.1">
  <defs
     id="defs3">
    <inkscape:perspective
       sodipodi:type="inkscape:persp3d"
       inkscape:vp_x="0 : 24 : 1"
       inkscape:vp_y="0 : 1000 : 0"
       inkscape:vp_z="48 : 24 : 1"
       inkscape:persp3d-origin="24 : 16 : 1"
       id="perspective39" />
    <linearGradient
       id="linearGradient3290">
      <stop
         id="stop3292"
         offset="0.0000000"
         style="stop-color:#fffcde;stop-opacity:1.0000000;" />
      <stop
         style="stop-color:#f6e76a;stop-opacity:1.0000000;"
         offset="0.64485979"
         id="stop3294" />
      <stop
         id="stop3296"
         offset="1.0000000"
         style="stop-color:#ffb738;stop-opacity:1.0000000;" />
    </linearGradient>
    <radialGradient
       r="8.9020796"
       fy="15.755712"
       fx="29.158466"
       cy="15.720984"
       cx="29.288071"
       gradientUnits="userSpaceOnUse"
       id="radialGradient2714"
       xlink:href="#linearGradient3290"
       inkscape:collect="always"
       gradientTransform="matrix(1.0779721,0,0,1.0779721,-22.771105,15.605431)" />
    <linearGradient
       id="linearGradient2509">
      <stop
         style="stop-color:#fffbd5;stop-opacity:1.0000000;"
         offset="0.0000000"
         id="stop2511" />
      <stop
         style="stop-color:#edd400;stop-opacity:1.0000000;"
         offset="1.0000000"
         id="stop2513" />
    </linearGradient>
    <radialGradient
       gradientTransform="matrix(0.64684267,0,0,0.64684267,-5.1419486,17.220018)"
       id="aigrd2"
       cx="25.0527"
       cy="39.5928"
       r="15.7572"
       fx="25.0527"
       fy="39.5928"
       gradientUnits="userSpaceOnUse">
      <stop
         offset="0.0000000"
         style="stop-color:#777777;stop-opacity:1.0000000;"
         id="stop8602" />
      <stop
         offset="1"
         style="stop-color:#000000"
         id="stop8604" />
    </radialGradient>
    <linearGradient
       id="linearGradient4565"
       inkscape:collect="always">
      <stop
         id="stop4567"
         offset="0"
         style="stop-color:#000000;stop-opacity:1;" />
      <stop
         id="stop4569"
         offset="1"
         style="stop-color:#000000;stop-opacity:0;" />
    </linearGradient>
    <linearGradient
       id="linearGradient3824">
      <stop
         id="stop3826"
         offset="0"
         style="stop-color:#ffffff;stop-opacity:1;" />
      <stop
         id="stop3828"
         offset="1.0000000"
         style="stop-color:#c9c9c9;stop-opacity:1.0000000;" />
    </linearGradient>
    <linearGradient
       id="linearGradient3800">
      <stop
         id="stop3802"
         offset="0.0000000"
         style="stop-color:#ffeed6;stop-opacity:1.0000000;" />
      <stop
         style="stop-color:#e49c2f;stop-opacity:1.0000000;"
         offset="0.50000000"
         id="stop8664" />
      <stop
         id="stop3804"
         offset="1.0000000"
         style="stop-color:#ffc66c;stop-opacity:1.0000000;" />
    </linearGradient>
    <radialGradient
       gradientUnits="userSpaceOnUse"
       gradientTransform="matrix(0.51747414,0,0,0.17249121,-1.7890029,37.446219)"
       r="19.714285"
       fy="38.57143"
       fx="24.714285"
       cy="38.57143"
       cx="24.714285"
       id="radialGradient4571"
       xlink:href="#linearGradient4565"
       inkscape:collect="always" />
  </defs>
  <sodipodi:namedview
     inkscape:window-y="-8"
     inkscape:window-x="-8"
     inkscape:window-height="1017"
     inkscape:window-width="1920"
     inkscape:showpageshadow="false"
     inkscape:document-units="px"
     inkscape:grid-bbox="true"
     showgrid="false"
     inkscape:current-layer="layer1"
     inkscape:cy="24.058534"
     inkscape:cx="10.341092"
     inkscape:zoom="11.313708"
     inkscape:pageshadow="2"
     inkscape:pageopacity="0.0"
     borderopacity="0.19607843"
     bordercolor="#666666"
     pagecolor="#ffffff"
     id="base"
     fill="#edd400"
     inkscape:window-maximized="1" />
  <metadata
     id="metadata4">
    <rdf:RDF>
      <cc:Work
         rdf:about="">
        <dc:format>image/svg+xml</dc:format>
        <dc:type
           rdf:resource="http://purl.org/dc/dcmitype/StillImage" />
        <dc:title>Face - Happy</dc:title>
        <dc:subject>
          <rdf:Bag>
            <rdf:li>emoticon</rdf:li>
            <rdf:li>emote</rdf:li>
            <rdf:li>smiley</rdf:li>
            <rdf:li>happy</rdf:li>
            <rdf:li>:)</rdf:li>
            <rdf:li>:-)</rdf:li>
          </rdf:Bag>
        </dc:subject>
        <cc:license
           rdf:resource="http://creativecommons.org/publicdomain/zero/1.0/" />
        <dc:creator>
          <cc:Agent>
            <dc:title>Jakub Steiner</dc:title>
          </cc:Agent>
        </dc:creator>
        <dc:source>http://jimmac.musichall.cz</dc:source>
      </cc:Work>
      <cc:License
         rdf:about="http://creativecommons.org/publicdomain/zero/1.0/">
        <cc:permits
           rdf:resource="http://creativecommons.org/ns#Reproduction" />
        <cc:permits
           rdf:resource="http://creativecommons.org/ns#Distribution" />
        <cc:permits
           rdf:resource="http://creativecommons.org/ns#DerivativeWorks" />
      </cc:License>
    </rdf:RDF>
  </metadata>
  <g
     inkscape:groupmode="layer"
     inkscape:label="Layer 1"
     id="layer1"
     transform="translate(0,-26)">
    <ellipse
       id="path4563"
       style="color:#000000;display:inline;overflow:visible;visibility:visible;opacity:0.53164559;fill:url(#radialGradient4571);fill-opacity:1;fill-rule:evenodd;stroke:none;stroke-width:0.20951065;stroke-linecap:round;stroke-linejoin:round;stroke-miterlimit:4;stroke-dasharray:none;stroke-dashoffset:0;stroke-opacity:1;marker:none;marker-start:none;marker-mid:none;marker-end:none"
       cx="11"
       cy="44.099457"
       rx="10.201632"
       ry="3.4005444" />
    <circle
       id="path4320"
       style="color:#000000;display:inline;overflow:visible;visibility:visible;opacity:1;fill:url(#radialGradient2714);fill-opacity:1;fill-rule:evenodd;stroke:#9c8c0a;stroke-width:0.51747406;stroke-linecap:round;stroke-linejoin:round;stroke-miterlimit:4;stroke-dasharray:none;stroke-dashoffset:0;stroke-opacity:1;marker:none;marker-start:none;marker-mid:none;marker-end:none"
       cx="10.767515"
       cy="36.096195"
       r="9.3374567" />
    <circle
       style="color:#000000;display:inline;overflow:visible;visibility:visible;opacity:0.67721522;fill:none;fill-opacity:1;fill-rule:evenodd;stroke:#ffffff;stroke-width:0.51747429;stroke-linecap:round;stroke-linejoin:round;stroke-miterlimit:4;stroke-dasharray:none;stroke-dashoffset:0;stroke-opacity:1;marker:none;marker-start:none;marker-mid:none;marker-end:none"
       id="path4322"
       cx="10.767548"
       cy="36.096222"
       r="8.874157" />
    <path
       sodipodi:nodetypes="czczc"
       id="path2659"
       d="m 17.504832,36.931682 c -1.560944,2.703633 -3.386094,4.652113 -6.635128,4.652113 -3.1566009,0 -5.4673929,-2.245681 -6.9095609,-4.743591 1.319255,1.58136 3.251254,3.397897 6.7723449,3.397897 4.20717,0 4.942797,-1.504222 6.772344,-3.306419 z"
       style="color:#000000;display:inline;overflow:visible;visibility:visible;opacity:0.36000001;fill:#ffffff;fill-opacity:1;fill-rule:nonzero;stroke:none;stroke-width:0.51747411;stroke-linecap:butt;stroke-linejoin:miter;stroke-miterlimit:4;stroke-dasharray:none;stroke-dashoffset:0;stroke-opacity:1;marker:none;marker-start:none;marker-mid:none;marker-end:none"
       inkscape:connector-curvature="0" />
    <path
       style="fill:url(#aigrd2);fill-rule:nonzero;stroke:none;stroke-width:0.51747411;stroke-miterlimit:4"
       d="m 17.504832,36.565774 c -1.560944,2.703633 -3.386094,4.652113 -6.635128,4.652113 -3.1566009,0 -5.4673929,-2.245681 -6.9095609,-4.743591 1.319255,1.58136 3.251254,3.397897 6.7723449,3.397897 4.20717,0 4.942797,-1.504222 6.772344,-3.306419 z"
       id="path8606"
       sodipodi:nodetypes="czczc"
       inkscape:connector-curvature="0" />
    <g
       transform="matrix(0.51747414,0,0,0.51747414,-1.6060489,25.377902)"
       id="g8666">
      <path
         style="opacity:0.36000001;fill:#ffffff;fill-rule:nonzero;stroke:none;stroke-miterlimit:4"
         d="m 21.398158,15.321428 c 0,2.5 -1.125,4.5 -2.5,4.5 -1.375,0 -2.625,-2 -2.625,-4.5 0,-2.5 1.125,-4.5 2.5,-4.5 1.375,0 2.5,2 2.5,4.5 z"
         id="path8610"
         inkscape:connector-curvature="0" />
      <path
         style="opacity:0.36000001;fill:#ffffff;fill-rule:nonzero;stroke:none;stroke-miterlimit:4"
         d="m 30.688512,15.321428 c 0,2.5 -1.125,4.5 -2.5,4.5 -1.375,0 -2.5,-2 -2.5,-4.5 0,-2.5 1.125,-4.5 2.5,-4.5 1.375,0 2.5,2 2.5,4.5 z"
         id="path8612"
         inkscape:connector-curvature="0" />
      <path
         style="fill:#000000;fill-rule:nonzero;stroke:none;stroke-miterlimit:4"
         d="m 21.398158,14.696428 c 0,2.5 -1.125,4.5 -2.5,4.5 -1.375,0 -2.5,-2 -2.5,-4.5 0,-2.5 1.125,-4.5 2.5,-4.5 1.375,0 2.5,2 2.5,4.5 z"
         id="path8614"
         inkscape:connector-curvature="0" />
      <path
         style="fill:#000000;fill-rule:nonzero;stroke:none;stroke-miterlimit:4"
         d="m 30.688512,14.696428 c 0,2.5 -1.125,4.5 -2.5,4.5 -1.375,0 -2.5,-2 -2.5,-4.5 0,-2.5 1.125,-4.5 2.5,-4.5 1.375,0 2.5,2 2.5,4.5 z"
         id="path8616"
         inkscape:connector-curvature="0" />
    </g>
  </g>
</svg>

<?xml version="1.0" encoding="UTF-8" standalone="no"?>
<!-- Created with Inkscape (http://www.inkscape.org/) -->
<svg
   xmlns:dc="http://purl.org/dc/elements/1.1/"
   xmlns:cc="http://creativecommons.org/ns#"
   xmlns:rdf="http://www.w3.org/1999/02/22-rdf-syntax-ns#"
   xmlns:svg="http://www.w3.org/2000/svg"
   xmlns="http://www.w3.org/2000/svg"
   xmlns:xlink="http://www.w3.org/1999/xlink"
   xmlns:sodipodi="http://sodipodi.sourceforge.net/DTD/sodipodi-0.dtd"
   xmlns:inkscape="http://www.inkscape.org/namespaces/inkscape"
   sodipodi:docname="face-smile.svg"
   sodipodi:docbase="/home/jimmac/gfx/ximian/tango-icon-theme/scalable/emotes"
   inkscape:version="0.46"
   sodipodi:version="0.32"
   id="svg4376"
   height="48px"
   width="48px"
   inkscape:output_extension="org.inkscape.output.svg.inkscape">
  <defs
     id="defs3">
    <inkscape:perspective
       sodipodi:type="inkscape:persp3d"
       inkscape:vp_x="0 : 24 : 1"
       inkscape:vp_y="0 : 1000 : 0"
       inkscape:vp_z="48 : 24 : 1"
       inkscape:persp3d-origin="24 : 16 : 1"
       id="perspective39" />
    <linearGradient
       id="linearGradient3290">
      <stop
         id="stop3292"
         offset="0.0000000"
         style="stop-color:#fffcde;stop-opacity:1.0000000;" />
      <stop
         style="stop-color:#f6e76a;stop-opacity:1.0000000;"
         offset="0.64485979"
         id="stop3294" />
      <stop
         id="stop3296"
         offset="1.0000000"
         style="stop-color:#ffb738;stop-opacity:1.0000000;" />
    </linearGradient>
    <radialGradient
       r="8.9020796"
       fy="15.755712"
       fx="29.158466"
       cy="15.720984"
       cx="29.288071"
       gradientUnits="userSpaceOnUse"
       id="radialGradient2714"
       xlink:href="#linearGradient3290"
       inkscape:collect="always" />
    <linearGradient
       id="linearGradient2509">
      <stop
         style="stop-color:#fffbd5;stop-opacity:1.0000000;"
         offset="0.0000000"
         id="stop2511" />
      <stop
         style="stop-color:#edd400;stop-opacity:1.0000000;"
         offset="1.0000000"
         id="stop2513" />
    </linearGradient>
    <radialGradient
       gradientTransform="matrix(1.250000,0.000000,0.000000,1.250000,-6.479446,-13.37211)"
       id="aigrd2"
       cx="25.0527"
       cy="39.5928"
       r="15.7572"
       fx="25.0527"
       fy="39.5928"
       gradientUnits="userSpaceOnUse">
      <stop
         offset="0.0000000"
         style="stop-color:#777777;stop-opacity:1.0000000;"
         id="stop8602" />
      <stop
         offset="1"
         style="stop-color:#000000"
         id="stop8604" />
    </radialGradient>
    <linearGradient
       id="linearGradient4565"
       inkscape:collect="always">
      <stop
         id="stop4567"
         offset="0"
         style="stop-color:#000000;stop-opacity:1;" />
      <stop
         id="stop4569"
         offset="1"
         style="stop-color:#000000;stop-opacity:0;" />
    </linearGradient>
    <linearGradient
       id="linearGradient3824">
      <stop
         id="stop3826"
         offset="0"
         style="stop-color:#ffffff;stop-opacity:1;" />
      <stop
         id="stop3828"
         offset="1.0000000"
         style="stop-color:#c9c9c9;stop-opacity:1.0000000;" />
    </linearGradient>
    <linearGradient
       id="linearGradient3800">
      <stop
         id="stop3802"
         offset="0.0000000"
         style="stop-color:#ffeed6;stop-opacity:1.0000000;" />
      <stop
         style="stop-color:#e49c2f;stop-opacity:1.0000000;"
         offset="0.50000000"
         id="stop8664" />
      <stop
         id="stop3804"
         offset="1.0000000"
         style="stop-color:#ffc66c;stop-opacity:1.0000000;" />
    </linearGradient>
    <radialGradient
       gradientUnits="userSpaceOnUse"
       gradientTransform="matrix(1.000000,0.000000,0.000000,0.333333,0.000000,25.71429)"
       r="19.714285"
       fy="38.571430"
       fx="24.714285"
       cy="38.571430"
       cx="24.714285"
       id="radialGradient4571"
       xlink:href="#linearGradient4565"
       inkscape:collect="always" />
  </defs>
  <sodipodi:namedview
     inkscape:window-y="109"
     inkscape:window-x="223"
     inkscape:window-height="739"
     inkscape:window-width="770"
     inkscape:showpageshadow="false"
     inkscape:document-units="px"
     inkscape:grid-bbox="true"
     showgrid="false"
     inkscape:current-layer="layer1"
     inkscape:cy="24.058534"
     inkscape:cx="25.411306"
     inkscape:zoom="11.313708"
     inkscape:pageshadow="2"
     inkscape:pageopacity="0.0"
     borderopacity="0.19607843"
     bordercolor="#666666"
     pagecolor="#ffffff"
     id="base"
     fill="#edd400" />
  <metadata
     id="metadata4">
    <rdf:RDF>
      <cc:Work
         rdf:about="">
        <dc:format>image/svg+xml</dc:format>
        <dc:type
           rdf:resource="http://purl.org/dc/dcmitype/StillImage" />
        <dc:title>Face - Happy</dc:title>
        <dc:subject>
          <rdf:Bag>
            <rdf:li>emoticon</rdf:li>
            <rdf:li>emote</rdf:li>
            <rdf:li>smiley</rdf:li>
            <rdf:li>happy</rdf:li>
            <rdf:li>:)</rdf:li>
            <rdf:li>:-)</rdf:li>
          </rdf:Bag>
        </dc:subject>
        <cc:license
           rdf:resource="http://creativecommons.org/licenses/publicdomain/" />
        <dc:creator>
          <cc:Agent>
            <dc:title>Jakub Steiner</dc:title>
          </cc:Agent>
        </dc:creator>
        <dc:source>http://jimmac.musichall.cz</dc:source>
      </cc:Work>
      <cc:License
         rdf:about="http://creativecommons.org/licenses/publicdomain/">
        <cc:permits
           rdf:resource="http://creativecommons.org/ns#Reproduction" />
        <cc:permits
           rdf:resource="http://creativecommons.org/ns#Distribution" />
        <cc:permits
           rdf:resource="http://creativecommons.org/ns#DerivativeWorks" />
      </cc:License>
    </rdf:RDF>
  </metadata>
  <g
     inkscape:groupmode="layer"
     inkscape:label="Layer 1"
     id="layer1">
    <path
       d="M 44.428570 38.571430 A 19.714285 6.5714288 0 1 1  5.0000000,38.571430 A 19.714285 6.5714288 0 1 1  44.428570 38.571430 z"
       sodipodi:ry="6.5714288"
       sodipodi:rx="19.714285"
       sodipodi:cy="38.571430"
       sodipodi:cx="24.714285"
       id="path4563"
       style="opacity:0.53164557;color:#000000;fill:url(#radialGradient4571);fill-opacity:1.0;fill-rule:evenodd;stroke:none;stroke-width:0.40487173;stroke-linecap:round;stroke-linejoin:round;marker:none;marker-start:none;marker-mid:none;marker-end:none;stroke-miterlimit:4.0000000;stroke-dasharray:none;stroke-dashoffset:0.0000000;stroke-opacity:1.0000000;visibility:visible;display:inline;overflow:visible"
       sodipodi:type="arc" />
    <path
       transform="matrix(2.083142,0.000000,0.000000,2.083142,-40.54715,-16.49224)"
       d="M 39.774755 19.008621 A 8.6620579 8.6620579 0 1 1  22.450640,19.008621 A 8.6620579 8.6620579 0 1 1  39.774755 19.008621 z"
       sodipodi:ry="8.6620579"
       sodipodi:rx="8.6620579"
       sodipodi:cy="19.008621"
       sodipodi:cx="31.112698"
       id="path4320"
       style="overflow:visible;display:inline;visibility:visible;stroke-opacity:1.0000000;stroke-dashoffset:0.0000000;stroke-dasharray:none;stroke-miterlimit:4.0000000;marker-end:none;marker-mid:none;marker-start:none;marker:none;stroke-linejoin:round;stroke-linecap:round;stroke-width:0.48004404;stroke:#9c8c0a;fill-rule:evenodd;fill-opacity:1.0000000;fill:url(#radialGradient2714);color:#000000;opacity:1.0000000"
       sodipodi:type="arc" />
    <path
       transform="matrix(1.979782,0.000000,0.000000,1.979782,-37.33128,-14.52746)"
       sodipodi:type="arc"
       style="opacity:0.67721519;color:#000000;fill:none;fill-opacity:1.0000000;fill-rule:evenodd;stroke:#ffffff;stroke-width:0.50510627;stroke-linecap:round;stroke-linejoin:round;marker:none;marker-start:none;marker-mid:none;marker-end:none;stroke-miterlimit:4.0000000;stroke-dasharray:none;stroke-dashoffset:0.0000000;stroke-opacity:1.0000000;visibility:visible;display:inline;overflow:visible"
       id="path4322"
       sodipodi:cx="31.112698"
       sodipodi:cy="19.008621"
       sodipodi:rx="8.6620579"
       sodipodi:ry="8.6620579"
       d="M 39.774755 19.008621 A 8.6620579 8.6620579 0 1 1  22.450640,19.008621 A 8.6620579 8.6620579 0 1 1  39.774755 19.008621 z" />
    <path
       sodipodi:nodetypes="czczc"
       id="path2659"
       d="M 37.284637,24.719966 C 34.268170,29.944639 30.741134,33.710005 24.462492,33.710005 C 18.362475,33.710005 13.896955,29.370308 11.110016,24.543189 C 13.659429,27.599109 17.392948,31.109501 24.197327,31.109501 C 32.327531,31.109501 33.749103,28.202646 37.284637,24.719966 z "
       style="opacity:0.35999998;color:#000000;fill:#ffffff;fill-opacity:1.0000000;fill-rule:nonzero;stroke:none;stroke-width:1.0000000;stroke-linecap:butt;stroke-linejoin:miter;marker:none;marker-start:none;marker-mid:none;marker-end:none;stroke-miterlimit:4.0000000;stroke-dasharray:none;stroke-dashoffset:0.0000000;stroke-opacity:1.0000000;visibility:visible;display:inline;overflow:visible" />
    <path
       style="fill:url(#aigrd2);fill-rule:nonzero;stroke:none;stroke-miterlimit:4.0000000"
       d="M 37.284637,24.012862 C 34.268170,29.237535 30.741134,33.002901 24.462492,33.002901 C 18.362475,33.002901 13.896955,28.663204 11.110016,23.836085 C 13.659429,26.892005 17.392948,30.402397 24.197327,30.402397 C 32.327531,30.402397 33.749103,27.495542 37.284637,24.012862 z "
       id="path8606"
       sodipodi:nodetypes="czczc" />
    <g
       transform="translate(0.353553,2.392706)"
       id="g8666">
      <path
         style="opacity:0.35999998;fill:#ffffff;fill-rule:nonzero;stroke:none;stroke-miterlimit:4.0000000"
         d="M 21.398158,15.321428 C 21.398158,17.821428 20.273158,19.821428 18.898158,19.821428 C 17.523158,19.821428 16.273158,17.821428 16.273158,15.321428 C 16.273158,12.821428 17.398158,10.821428 18.773158,10.821428 C 20.148158,10.821428 21.273158,12.821428 21.273158,15.321428 L 21.398158,15.321428 z "
         id="path8610" />
      <path
         style="opacity:0.35999998;fill:#ffffff;fill-rule:nonzero;stroke:none;stroke-miterlimit:4.0000000"
         d="M 30.688512,15.321428 C 30.688512,17.821428 29.563512,19.821428 28.188512,19.821428 C 26.813512,19.821428 25.688512,17.821428 25.688512,15.321428 C 25.688512,12.821428 26.813512,10.821428 28.188512,10.821428 C 29.563512,10.821428 30.688512,12.821428 30.688512,15.321428 z "
         id="path8612" />
      <path
         style="fill:#000000;fill-rule:nonzero;stroke:none;stroke-miterlimit:4.0000000"
         d="M 21.398158,14.696428 C 21.398158,17.196428 20.273158,19.196428 18.898158,19.196428 C 17.523158,19.196428 16.398158,17.196428 16.398158,14.696428 C 16.398158,12.196428 17.523158,10.196428 18.898158,10.196428 C 20.273158,10.196428 21.398158,12.196428 21.398158,14.696428 z "
         id="path8614" />
      <path
         style="fill:#000000;fill-rule:nonzero;stroke:none;stroke-miterlimit:4.0000000"
         d="M 30.688512,14.696428 C 30.688512,17.196428 29.563512,19.196428 28.188512,19.196428 C 26.813512,19.196428 25.688512,17.196428 25.688512,14.696428 C 25.688512,12.196428 26.813512,10.196428 28.188512,10.196428 C 29.563512,10.196428 30.688512,12.196428 30.688512,14.696428 z "
         id="path8616" />
    </g>
  </g>
</svg>
